build/payment/TroykaM.svg

<svg xmlns="http://www.w3.org/2000/svg" fill="none" viewBox="0 0 28 20" focusable="false"><path fill="none" d="M0 0H28V20H0z"/><rect width="28" height="20" fill="#F5F5F6" rx="2"/><path fill="#28303D" fill-rule="evenodd" d="M5.33331 5.87501L5.70245 6.0798L5.33476 8.05472C5.3338 8.05991 5.33331 8.06517 5.33331 8.07045C5.33331 8.30769 5.52564 8.50002 5.76288 8.50002L5.88872 8.50002C6.11956 8.50002 6.30561 8.31269 6.30561 8.08337L6.30544 8.07122L6.30537 8.06642C6.30537 7.99758 6.34776 7.93559 6.41233 7.91079L7.15637 7.62502L7.05218 9.92191L10.2552 9.92191L10.2552 8.50002C10.2552 8.50002 10.2552 5 7.30229 5C5.8255 5 5.33331 5.87501 5.33331 5.87501ZM11.4854 5.87501L11.8545 6.0798L11.4868 8.05472C11.4859 8.05991 11.4854 8.06517 11.4854 8.07045C11.4854 8.3077 11.6777 8.50002 11.9149 8.50002L12.0408 8.50002C12.2716 8.50002 12.4577 8.31269 12.4577 8.08337L12.4575 8.07122L12.4574 8.06642C12.4574 7.99758 12.4998 7.93559 12.5644 7.91079L13.3084 7.62502L13.2042 9.92191L16.4073 9.92191L16.4073 8.50002C16.4073 8.50002 16.4073 5 13.4544 5C11.9776 5 11.4854 5.87501 11.4854 5.87501ZM17.6376 5.87501L18.0068 6.0798L17.6391 8.05472C17.6381 8.05991 17.6376 8.06517 17.6376 8.07045C17.6376 8.3077 17.8299 8.50002 18.0672 8.50002L18.193 8.50002C18.4239 8.50002 18.6099 8.31269 18.6099 8.08337L18.6097 8.07122L18.6097 8.06642C18.6097 7.99758 18.6521 7.93559 18.7166 7.91079L19.4607 7.62502L19.3565 9.92191L22.5595 9.92191L22.5595 8.50002C22.5595 8.50002 22.5595 5 19.6066 5C18.1298 5 17.6376 5.87501 17.6376 5.87501ZM15.3385 12.3088C15.5078 12.3088 15.6451 12.165 15.6451 11.9877C15.6451 11.8103 15.5078 11.6666 15.3385 11.6666C15.1692 11.6666 15.0319 11.8103 15.0319 11.9877C15.0319 12.165 15.1692 12.3088 15.3385 12.3088ZM5.99049 12.5485L4.26661 12.5485C4.11936 12.5485 4 12.6735 4 12.8277C4 12.9819 4.11936 13.1069 4.26661 13.1069L4.86195 13.1069L4.86195 15.3616C4.86195 15.5158 4.98131 15.6408 5.12856 15.6408C5.2758 15.6408 5.39516 15.5158 5.39516 15.3616L5.39516 13.1069L5.99049 13.1069C6.13774 13.1069 6.2571 12.9819 6.2571 12.8277C6.2571 12.6735 6.13774 12.5485 5.99049 12.5485ZM8.71098 12.5485L7.88492 12.5485C7.73767 12.5485 7.61832 12.6735 7.61832 12.8277L7.61832 15.3616C7.61832 15.5158 7.73767 15.6408 7.88492 15.6408C8.03217 15.6408 8.15153 15.5158 8.15153 15.3616L8.15153 14.4214L8.71098 14.4214C9.20405 14.4214 9.60518 14.0013 9.60518 13.4849C9.60518 12.9686 9.20405 12.5485 8.71098 12.5485ZM11.8792 12.5485C11.3079 12.5485 10.8431 13.085 10.8431 13.7446L10.8431 14.4447C10.8431 15.1042 11.3079 15.6408 11.8792 15.6408C12.4505 15.6408 12.9153 15.1042 12.9153 14.4447L12.9153 13.7446C12.9153 13.085 12.4505 12.5485 11.8792 12.5485ZM16.1715 12.5485C16.0242 12.5485 15.9048 12.6735 15.9048 12.8277L15.9048 13.1724L14.7716 14.2596L14.7716 12.8277C14.7716 12.6735 14.6522 12.5485 14.505 12.5485C14.3577 12.5485 14.2384 12.6735 14.2384 12.8277L14.2384 15.3616C14.2384 15.5158 14.3577 15.6408 14.505 15.6408C14.6522 15.6408 14.7716 15.5158 14.7716 15.3616L14.7716 15.0169L15.9048 13.9297L15.9048 15.3616C15.9048 15.5158 16.0242 15.6408 16.1715 15.6408C16.3187 15.6408 16.4381 15.5158 16.4381 15.3616L16.4381 12.8277C16.4381 12.6735 16.3187 12.5485 16.1715 12.5485ZM20.3042 15.0825L20.0788 15.0825L19.4476 14.0948L20.158 12.9831C20.1885 12.9354 20.2031 12.8815 20.2031 12.8281C20.2031 12.738 20.1616 12.6496 20.0848 12.5958C19.9624 12.5101 19.7968 12.5444 19.7149 12.6725L18.9844 13.8156L18.5848 13.8156L18.5848 12.833C18.5848 12.6788 18.4654 12.5538 18.3181 12.5538C18.1709 12.5538 18.0515 12.6788 18.0515 12.833L18.0515 15.3617C18.0515 15.5159 18.1709 15.6409 18.3181 15.6409C18.4654 15.6409 18.5848 15.5159 18.5848 15.3617L18.5848 14.374L18.9844 14.374L19.7149 15.517C19.7644 15.5944 19.8475 15.6409 19.9365 15.6409L20.3042 15.6409C20.4514 15.6409 20.5708 15.5159 20.5708 15.3617C20.5708 15.2075 20.4514 15.0825 20.3042 15.0825ZM23.9814 15.2847L23.836 14.8994C23.8318 14.8411 23.8107 14.7878 23.7776 14.745L23.0245 12.7507C22.9836 12.6424 22.8837 12.5717 22.7716 12.5743C22.6604 12.5764 22.5622 12.6507 22.5252 12.7605L21.8523 14.7571C21.8232 14.7992 21.8052 14.8501 21.8024 14.9054L21.6748 15.284C21.6644 15.3147 21.6595 15.3461 21.6595 15.3769C21.6595 15.492 21.7279 15.5997 21.8374 15.6402C21.9763 15.6915 22.1286 15.6153 22.1776 15.4698L22.2686 15.1996L23.3759 15.1996L23.4856 15.4901C23.527 15.5997 23.6274 15.6666 23.7336 15.6666C23.7662 15.6666 23.7994 15.6603 23.8315 15.647C23.9363 15.6036 24.0002 15.4985 24.0002 15.3873C24.0002 15.3531 23.9942 15.3184 23.9814 15.2847ZM8.71098 13.863L8.15153 13.863L8.15153 13.1069L8.71098 13.1069C8.91002 13.1069 9.07197 13.2765 9.07197 13.4849C9.07197 13.6934 8.91002 13.863 8.71098 13.863ZM12.4316 14.4447C12.4316 14.7963 12.1838 15.0824 11.8792 15.0824C11.5746 15.0824 11.3269 14.7963 11.3269 14.4447L11.3269 13.7446C11.3269 13.3929 11.5746 13.1069 11.8792 13.1069C12.1838 13.1069 12.4316 13.3929 12.4316 13.7446L12.4316 14.4447ZM22.4568 14.6412L22.7908 13.6502L23.165 14.6412L22.4568 14.6412Z"/></svg>

<svg xmlns="http://www.w3.org/2000/svg" fill="none" viewBox="0 0 28 20" focusable="false"><path fill="none" d="M0 0h28v20H0z"/><rect width="28" height="20" fill="#F0F2F5" rx="2"/><path fill="#29313D" fill-rule="evenodd" d="m5.33 5.87.37.2-.37 1.98v.02c0 .23.19.43.43.43h.12c.23 0 .42-.19.42-.42v-.02c0-.07.04-.13.11-.15l.74-.29-.1 2.3h3.2V8.5S10.25 5 7.3 5c-1.48 0-1.97.87-1.97.87m6.15 0 .37.2-.37 1.98v.02c0 .23.19.43.43.43h.13c.23 0 .41-.19.41-.42v-.02c0-.07.04-.13.11-.15l.74-.29-.1 2.3h3.2V8.5s0-3.5-2.95-3.5c-1.48 0-1.97.87-1.97.87m6.15 0 .37.2-.37 1.98v.02c0 .23.2.43.43.43h.13c.23 0 .41-.19.41-.42v-.02c0-.07.05-.13.11-.15l.75-.29-.11 2.3h3.2V8.5s0-3.5-2.95-3.5c-1.48 0-1.97.87-1.97.87m-2.3 6.43c.17 0 .31-.14.31-.32a.32.32 0 0 0-.31-.32c-.17 0-.3.15-.3.32 0 .18.13.32.3.32m-9.34.24H4.26c-.15 0-.26.13-.26.28 0 .16.11.28.26.28h.6v2.26c0 .15.12.28.26.28.15 0 .27-.13.27-.28V13.1h.6c.14 0 .26-.12.26-.28 0-.15-.12-.28-.26-.28m2.72 0h-.83c-.15 0-.27.13-.27.28v2.54c0 .15.12.28.27.28s.27-.13.27-.28v-.94h.56c.49 0 .89-.42.89-.94s-.4-.94-.89-.94m3.16 0c-.57 0-1.03.54-1.03 1.2v.7c0 .66.46 1.2 1.03 1.2.58 0 1.04-.54 1.04-1.2v-.7c0-.66-.46-1.2-1.04-1.2m4.3 0c-.15 0-.27.13-.27.28v.35l-1.13 1.08v-1.43c0-.15-.12-.28-.27-.28s-.27.13-.27.28v2.54c0 .15.12.28.27.28s.27-.13.27-.28v-.35l1.13-1.09v1.44c0 .15.12.28.27.28.14 0 .26-.13.26-.28v-2.54c0-.15-.12-.28-.26-.28m4.13 2.54h-.23l-.63-.99.71-1.11c.03-.05.05-.1.05-.16 0-.09-.04-.18-.12-.23a.264.264 0 0 0-.37.08l-.73 1.14h-.4v-.98c0-.16-.12-.28-.27-.28-.14 0-.26.12-.26.28v2.53c0 .15.12.28.26.28.15 0 .27-.13.27-.28v-.99h.4l.73 1.14c.05.08.13.13.22.13h.37c.15 0 .27-.13.27-.28 0-.16-.12-.28-.27-.28m3.68.2-.15-.39a.22.22 0 0 0-.06-.15l-.75-1.99a.27.27 0 0 0-.25-.18c-.11 0-.21.08-.25.19l-.67 1.99a.27.27 0 0 0-.05.15l-.13.38c-.01.03-.02.06-.02.09 0 .12.07.22.18.27.14.05.29-.03.34-.18l.09-.27h1.11l.11.3c.04.1.14.17.25.17.03 0 .06 0 .1-.02.1-.04.17-.15.17-.26 0-.03-.01-.07-.02-.1M8.71 13.86h-.56v-.76h.56c.2 0 .36.17.36.38s-.16.38-.36.38m3.72.58c0 .35-.25.64-.56.64-.3 0-.55-.29-.55-.64v-.7c0-.35.25-.64.55-.64.31 0 .56.29.56.64zm10.02.2.34-.99.37.99z"/></svg>
